images/footer-logo.svg

<svg width="176" height="123" viewBox="0 0 176 123" fill="none" xmlns="http://www.w3.org/2000/svg">
<path d="M105.84 46.2048L129.133 75.7433H45.6133L108.215 66.6634L105.84 46.2048Z" fill="white"/>
<path d="M76.1095 36.4741L90.0437 1.53197L131.804 73.8625L92.6394 24.1877L76.1095 36.4741Z" fill="white"/>
<path d="M82.2276 66.9269L44.9997 72.3305L86.7597 2.68496e-05L63.3223 58.7547L82.2276 66.9269Z" fill="white"/>
<path d="M0.36 98.3361H6.6C6.84 99.6321 7.848 100.136 10.296 100.136C12.6 100.136 13.944 99.7041 13.944 98.9361C13.944 98.0241 13.08 97.9281 11.64 97.8081L8.112 97.5201C3.336 97.1361 0.6 96.0081 0.6 92.3841C0.6 88.8321 4.344 86.9601 10.296 86.9601C15.936 86.9601 19.776 88.8321 20.064 92.8401H13.896C13.752 91.6401 12.6 91.0641 10.296 91.0641C8.16 91.0641 6.96 91.4961 6.96 92.2641C6.96 93.1041 7.728 93.3681 9.936 93.5361L13.512 93.8241C17.064 94.1121 20.328 95.0961 20.328 98.9601C20.328 103.256 15.456 104.24 10.296 104.24C3.84 104.24 0.648 102.056 0.36 98.3361ZM26.6775 91.7601H20.6775V87.2001H38.8935V91.7601H32.8935V104H26.6775V91.7601ZM57.3566 104H40.2206V87.2001H57.3566V91.5201H46.4366V93.5121H56.6366V97.6881H46.4366V99.6801H57.3566V104ZM65.8245 101.888L65.1285 104H58.4325L64.5285 87.2001H74.1525L80.2485 104H73.5525L72.8565 101.888H65.8245ZM69.1845 91.6161L67.2405 97.5681H71.4405L69.4725 91.6161H69.1845ZM87.6632 87.2001V99.4401H97.0472V104H81.4472V87.2001H87.6632ZM99.6853 91.7601H93.6853V87.2001H111.901V91.7601H105.901V104H99.6853V91.7601ZM130.364 104H113.228V87.2001H130.364V91.5201H119.444V93.5121H129.644V97.6881H119.444V99.6801H130.364V104ZM131.446 95.6001C131.446 90.3441 135.814 86.9601 142.27 86.9601C148.342 86.9601 152.83 89.9841 153.118 94.4961H146.662C146.422 93.1281 145.006 91.6881 142.39 91.6881C139.534 91.6881 137.806 93.2481 137.806 95.6001C137.806 98.1201 139.726 99.5121 142.39 99.5121C145.006 99.5121 146.158 98.3601 146.662 96.7041H153.118C152.782 101.24 148.366 104.24 142.27 104.24C135.718 104.24 131.446 100.784 131.446 95.6001ZM160.765 104H154.549V87.2001H160.765V93.3921H167.773V87.2001H173.989V104H167.773V97.9521H160.765V104Z" fill="white"/>
<path d="M40.4 119H38.615V114.605L36.995 119H36.215L34.61 114.605V119H32.81V111.755H35.12L36.605 115.79L38.105 111.755H40.4V119ZM47.5889 119H45.7739V118.28C45.5739 118.56 45.2989 118.78 44.9489 118.94C44.6089 119.1 44.2489 119.18 43.8689 119.18C43.2589 119.18 42.7339 118.965 42.2939 118.535C41.8539 118.105 41.6339 117.52 41.6339 116.78C41.6339 116.03 41.8489 115.45 42.2789 115.04C42.7189 114.63 43.2489 114.425 43.8689 114.425C44.2589 114.425 44.6239 114.5 44.9639 114.65C45.3139 114.8 45.5839 115.01 45.7739 115.28V114.335C45.7739 113.945 45.6539 113.64 45.4139 113.42C45.1839 113.19 44.8589 113.075 44.4389 113.075C43.7789 113.075 43.1839 113.335 42.6539 113.855L41.9789 112.625C42.7089 111.925 43.6389 111.575 44.7689 111.575C45.6189 111.575 46.2989 111.785 46.8089 112.205C47.3289 112.615 47.5889 113.26 47.5889 114.14V119ZM44.5589 117.965C45.1189 117.965 45.5239 117.735 45.7739 117.275V116.345C45.5139 115.875 45.1089 115.64 44.5589 115.64C44.2189 115.64 43.9439 115.75 43.7339 115.97C43.5339 116.18 43.4339 116.46 43.4339 116.81C43.4339 117.16 43.5339 117.44 43.7339 117.65C43.9439 117.86 44.2189 117.965 44.5589 117.965ZM53.8816 111.755V113.33H51.0016V119H49.2016V111.755H53.8816ZM60.5088 119H58.6938V118.28C58.4938 118.56 58.2188 118.78 57.8688 118.94C57.5288 119.1 57.1688 119.18 56.7888 119.18C56.1788 119.18 55.6538 118.965 55.2138 118.535C54.7738 118.105 54.5538 117.52 54.5538 116.78C54.5538 116.03 54.7688 115.45 55.1988 115.04C55.6388 114.63 56.1688 114.425 56.7888 114.425C57.1788 114.425 57.5438 114.5 57.8838 114.65C58.2338 114.8 58.5038 115.01 58.6938 115.28V114.335C58.6938 113.945 58.5738 113.64 58.3338 113.42C58.1038 113.19 57.7788 113.075 57.3588 113.075C56.6988 113.075 56.1038 113.335 55.5738 113.855L54.8988 112.625C55.6288 111.925 56.5588 111.575 57.6888 111.575C58.5388 111.575 59.2188 111.785 59.7288 112.205C60.2488 112.615 60.5088 113.26 60.5088 114.14V119ZM57.4788 117.965C58.0388 117.965 58.4438 117.735 58.6938 117.275V116.345C58.4338 115.875 58.0288 115.64 57.4788 115.64C57.1388 115.64 56.8638 115.75 56.6538 115.97C56.4538 116.18 56.3538 116.46 56.3538 116.81C56.3538 117.16 56.4538 117.44 56.6538 117.65C56.8638 117.86 57.1388 117.965 57.4788 117.965ZM64.4615 119.18C63.1815 119.18 62.1965 118.795 61.5065 118.025L62.3615 116.945C62.8715 117.475 63.5565 117.74 64.4165 117.74C64.8165 117.74 65.1265 117.665 65.3465 117.515C65.5665 117.355 65.6765 117.14 65.6765 116.87C65.6765 116.32 65.2315 116.045 64.3415 116.045H62.9915V114.635H64.3115C65.1415 114.635 65.5565 114.36 65.5565 113.81C65.5565 113.56 65.4415 113.365 65.2115 113.225C64.9915 113.085 64.6915 113.015 64.3115 113.015C63.5415 113.015 62.9315 113.275 62.4815 113.795L61.5965 112.73C62.2865 111.96 63.1765 111.575 64.2665 111.575C65.2265 111.575 65.9815 111.755 66.5315 112.115C67.0915 112.465 67.3715 112.95 67.3715 113.57C67.3715 113.98 67.2065 114.35 66.8765 114.68C66.5565 115 66.1665 115.2 65.7065 115.28C66.1865 115.34 66.6015 115.525 66.9515 115.835C67.3115 116.145 67.4915 116.54 67.4915 117.02C67.4915 117.66 67.2165 118.18 66.6665 118.58C66.1165 118.98 65.3815 119.18 64.4615 119.18ZM70.4826 119H68.7426V111.755H70.5426V115.835L72.7776 111.755H74.6226V119H72.8076V114.755L70.4826 119ZM78.0426 119H76.2426V111.755H78.0426V114.455H80.3076V111.755H82.1226V119H80.3076V116.03H78.0426V119ZM92.457 119H90.642V118.28C90.442 118.56 90.167 118.78 89.817 118.94C89.477 119.1 89.117 119.18 88.737 119.18C88.127 119.18 87.602 118.965 87.162 118.535C86.722 118.105 86.502 117.52 86.502 116.78C86.502 116.03 86.717 115.45 87.147 115.04C87.587 114.63 88.117 114.425 88.737 114.425C89.127 114.425 89.492 114.5 89.832 114.65C90.182 114.8 90.452 115.01 90.642 115.28V114.335C90.642 113.945 90.522 113.64 90.282 113.42C90.052 113.19 89.727 113.075 89.307 113.075C88.647 113.075 88.052 113.335 87.522 113.855L86.847 112.625C87.577 111.925 88.507 111.575 89.637 111.575C90.487 111.575 91.167 111.785 91.677 112.205C92.197 112.615 92.457 113.26 92.457 114.14V119ZM89.427 117.965C89.987 117.965 90.392 117.735 90.642 117.275V116.345C90.382 115.875 89.977 115.64 89.427 115.64C89.087 115.64 88.812 115.75 88.602 115.97C88.402 116.18 88.302 116.46 88.302 116.81C88.302 117.16 88.402 117.44 88.602 117.65C88.812 117.86 89.087 117.965 89.427 117.965ZM100.25 119H98.1348L96.6348 116.165L95.8698 117.23V119H94.0698V111.755H95.8698V115.04L98.0748 111.755H100.175L97.8798 115.01L100.25 119ZM107.281 119H105.166L103.666 116.165L102.901 117.23V119H101.101V111.755H102.901V115.04L105.106 111.755H107.206L104.911 115.01L107.281 119ZM113.697 119H111.882V118.28C111.682 118.56 111.407 118.78 111.057 118.94C110.717 119.1 110.357 119.18 109.977 119.18C109.367 119.18 108.842 118.965 108.402 118.535C107.962 118.105 107.742 117.52 107.742 116.78C107.742 116.03 107.957 115.45 108.387 115.04C108.827 114.63 109.357 114.425 109.977 114.425C110.367 114.425 110.732 114.5 111.072 114.65C111.422 114.8 111.692 115.01 111.882 115.28V114.335C111.882 113.945 111.762 113.64 111.522 113.42C111.292 113.19 110.967 113.075 110.547 113.075C109.887 113.075 109.292 113.335 108.762 113.855L108.087 112.625C108.817 111.925 109.747 111.575 110.877 111.575C111.727 111.575 112.407 111.785 112.917 112.205C113.437 112.615 113.697 113.26 113.697 114.14V119ZM110.667 117.965C111.227 117.965 111.632 117.735 111.882 117.275V116.345C111.622 115.875 111.217 115.64 110.667 115.64C110.327 115.64 110.052 115.75 109.842 115.97C109.642 116.18 109.542 116.46 109.542 116.81C109.542 117.16 109.642 117.44 109.842 117.65C110.052 117.86 110.327 117.965 110.667 117.965ZM115.145 121.835L115.415 120.245C115.555 120.315 115.71 120.35 115.88 120.35C116.28 120.35 116.545 120.175 116.675 119.825L116.915 119.135L114.47 111.755H116.39L117.845 116.825L119.315 111.755H121.235L118.4 120.23C118.19 120.87 117.895 121.31 117.515 121.55C117.135 121.8 116.635 121.93 116.015 121.94C115.665 121.94 115.375 121.905 115.145 121.835ZM123.819 119H122.019V111.755H123.819V114.455H126.084V111.755H127.899V119H126.084V116.03H123.819V119ZM132.369 119H130.554V113.33H128.964V111.755H133.974V113.33H132.369V119ZM137.922 119.18C136.902 119.18 136.102 118.815 135.522 118.085C134.942 117.345 134.652 116.44 134.652 115.37C134.652 114.3 134.942 113.4 135.522 112.67C136.102 111.94 136.902 111.575 137.922 111.575C138.952 111.575 139.757 111.94 140.337 112.67C140.917 113.4 141.207 114.3 141.207 115.37C141.207 116.45 140.917 117.355 140.337 118.085C139.757 118.815 138.952 119.18 137.922 119.18ZM137.922 117.59C138.392 117.59 138.747 117.38 138.987 116.96C139.227 116.54 139.347 116.01 139.347 115.37C139.347 114.73 139.227 114.205 138.987 113.795C138.747 113.375 138.392 113.165 137.922 113.165C137.462 113.165 137.112 113.375 136.872 113.795C136.642 114.215 136.527 114.74 136.527 115.37C136.527 116.01 136.642 116.54 136.872 116.96C137.112 117.38 137.462 117.59 137.922 117.59ZM146.234 119H142.454V111.755H146.129C146.859 111.755 147.409 111.93 147.779 112.28C148.159 112.63 148.349 113.075 148.349 113.615C148.349 114.035 148.234 114.39 148.004 114.68C147.774 114.96 147.474 115.15 147.104 115.25C147.514 115.34 147.849 115.55 148.109 115.88C148.369 116.21 148.499 116.595 148.499 117.035C148.499 117.615 148.309 118.09 147.929 118.46C147.549 118.82 146.984 119 146.234 119ZM145.814 117.545C146.374 117.545 146.654 117.295 146.654 116.795C146.654 116.575 146.579 116.395 146.429 116.255C146.289 116.105 146.084 116.03 145.814 116.03H144.254V117.545H145.814ZM145.754 114.575C146.264 114.575 146.519 114.35 146.519 113.9C146.519 113.69 146.454 113.525 146.324 113.405C146.194 113.275 146.004 113.21 145.754 113.21H144.254V114.575H145.754Z" fill="white"/>
</svg>

<svg width="176" height="123" fill="none" xmlns="http://www.w3.org/2000/svg"><path d="m105.84 46.205 23.293 29.538h-83.52l62.602-9.08-2.375-20.458z" fill="#fff"/><path d="M76.11 36.474 90.043 1.532l41.76 72.33-39.165-49.674-16.53 12.286z" fill="#fff"/><path d="M82.228 66.927 45 72.33 86.76 0 63.322 58.755l18.906 8.172zM.36 98.336H6.6c.24 1.296 1.248 1.8 3.696 1.8 2.304 0 3.648-.432 3.648-1.2 0-.912-.864-1.008-2.304-1.128l-3.528-.288C3.336 97.136.6 96.008.6 92.384c0-3.552 3.744-5.424 9.696-5.424 5.64 0 9.48 1.872 9.768 5.88h-6.168c-.144-1.2-1.296-1.776-3.6-1.776-2.136 0-3.336.432-3.336 1.2 0 .84.768 1.104 2.976 1.272l3.576.288c3.552.288 6.816 1.272 6.816 5.136 0 4.296-4.872 5.28-10.032 5.28-6.456 0-9.648-2.184-9.936-5.904zm26.317-6.576h-6V87.2h18.217v4.56h-6V104h-6.216V91.76zM57.358 104H40.22V87.2h17.136v4.32h-10.92v1.992h10.2v4.176h-10.2v1.992h10.92V104zm8.468-2.112L65.127 104h-6.696l6.096-16.8h9.624L80.25 104h-6.697l-.696-2.112h-7.031zm3.36-10.272-1.945 5.952h4.2l-1.968-5.952h-.287zM87.662 87.2v12.24h9.384V104h-15.6V87.2h6.216zm12.022 4.56h-6V87.2h18.216v4.56h-6V104h-6.216V91.76zM130.364 104h-17.136V87.2h17.136v4.32h-10.92v1.992h10.2v4.176h-10.2v1.992h10.92V104zm1.082-8.4c0-5.256 4.368-8.64 10.824-8.64 6.072 0 10.56 3.024 10.848 7.536h-6.456c-.24-1.368-1.656-2.808-4.272-2.808-2.856 0-4.584 1.56-4.584 3.912 0 2.52 1.92 3.912 4.584 3.912 2.616 0 3.768-1.152 4.272-2.808h6.456c-.336 4.536-4.752 7.536-10.848 7.536-6.552 0-10.824-3.456-10.824-8.64zm29.319 8.4h-6.216V87.2h6.216v6.192h7.008V87.2h6.216V104h-6.216v-6.048h-7.008V104zM40.4 119h-1.785v-4.395L36.995 119h-.78l-1.605-4.395V119h-1.8v-7.245h2.31l1.485 4.035 1.5-4.035H40.4V119zm7.189 0h-1.815v-.72c-.2.28-.475.5-.825.66-.34.16-.7.24-1.08.24-.61 0-1.135-.215-1.575-.645-.44-.43-.66-1.015-.66-1.755 0-.75.215-1.33.645-1.74.44-.41.97-.615 1.59-.615.39 0 .755.075 1.095.225.35.15.62.36.81.63v-.945c0-.39-.12-.695-.36-.915-.23-.23-.555-.345-.975-.345-.66 0-1.255.26-1.785.78l-.675-1.23c.73-.7 1.66-1.05 2.79-1.05.85 0 1.53.21 2.04.63.52.41.78 1.055.78 1.935V119zm-3.03-1.035c.56 0 .965-.23 1.215-.69v-.93c-.26-.47-.665-.705-1.215-.705-.34 0-.615.11-.825.33-.2.21-.3.49-.3.84s.1.63.3.84c.21.21.485.315.825.315zm9.323-6.21v1.575h-2.88V119h-1.8v-7.245h4.68zM60.509 119h-1.815v-.72c-.2.28-.475.5-.825.66-.34.16-.7.24-1.08.24-.61 0-1.135-.215-1.575-.645-.44-.43-.66-1.015-.66-1.755 0-.75.215-1.33.645-1.74.44-.41.97-.615 1.59-.615.39 0 .755.075 1.095.225.35.15.62.36.81.63v-.945c0-.39-.12-.695-.36-.915-.23-.23-.555-.345-.975-.345-.66 0-1.255.26-1.785.78l-.675-1.23c.73-.7 1.66-1.05 2.79-1.05.85 0 1.53.21 2.04.63.52.41.78 1.055.78 1.935V119zm-3.03-1.035c.56 0 .965-.23 1.215-.69v-.93c-.26-.47-.665-.705-1.215-.705-.34 0-.615.11-.825.33-.2.21-.3.49-.3.84s.1.63.3.84c.21.21.485.315.825.315zm6.983 1.215c-1.28 0-2.266-.385-2.956-1.155l.855-1.08c.51.53 1.196.795 2.056.795.4 0 .71-.075.93-.225.22-.16.33-.375.33-.645 0-.55-.446-.825-1.336-.825h-1.35v-1.41h1.32c.83 0 1.245-.275 1.245-.825 0-.25-.114-.445-.344-.585-.22-.14-.52-.21-.9-.21-.77 0-1.38.26-1.83.78l-.886-1.065c.69-.77 1.58-1.155 2.67-1.155.96 0 1.715.18 2.265.54.56.35.84.835.84 1.455 0 .41-.164.78-.495 1.11-.32.32-.71.52-1.17.6.48.06.895.245 1.245.555.36.31.54.705.54 1.185 0 .64-.275 1.16-.825 1.56-.55.4-1.284.6-2.204.6zm6.02-.18h-1.74v-7.245h1.8v4.08l2.236-4.08h1.845V119h-1.815v-4.245L70.483 119zm7.56 0h-1.8v-7.245h1.8v2.7h2.266v-2.7h1.815V119h-1.815v-2.97h-2.265V119zm14.415 0h-1.815v-.72c-.2.28-.475.5-.825.66-.34.16-.7.24-1.08.24-.61 0-1.135-.215-1.575-.645-.44-.43-.66-1.015-.66-1.755 0-.75.215-1.33.645-1.74.44-.41.97-.615 1.59-.615.39 0 .755.075 1.095.225.35.15.62.36.81.63v-.945c0-.39-.12-.695-.36-.915-.23-.23-.555-.345-.975-.345-.66 0-1.255.26-1.785.78l-.675-1.23c.73-.7 1.66-1.05 2.79-1.05.85 0 1.53.21 2.04.63.52.41.78 1.055.78 1.935V119zm-3.03-1.035c.56 0 .965-.23 1.215-.69v-.93c-.26-.47-.665-.705-1.215-.705-.34 0-.615.11-.825.33-.2.21-.3.49-.3.84s.1.63.3.84c.21.21.485.315.825.315zM100.25 119h-2.115l-1.5-2.835-.765 1.065V119h-1.8v-7.245h1.8v3.285l2.205-3.285h2.1l-2.295 3.255 2.37 3.99zm7.031 0h-2.115l-1.5-2.835-.765 1.065V119h-1.8v-7.245h1.8v3.285l2.205-3.285h2.1l-2.295 3.255 2.37 3.99zm6.416 0h-1.815v-.72c-.2.28-.475.5-.825.66-.34.16-.7.24-1.08.24-.61 0-1.135-.215-1.575-.645-.44-.43-.66-1.015-.66-1.755 0-.75.215-1.33.645-1.74.44-.41.97-.615 1.59-.615.39 0 .755.075 1.095.225.35.15.62.36.81.63v-.945c0-.39-.12-.695-.36-.915-.23-.23-.555-.345-.975-.345-.66 0-1.255.26-1.785.78l-.675-1.23c.73-.7 1.66-1.05 2.79-1.05.85 0 1.53.21 2.04.63.52.41.78 1.055.78 1.935V119zm-3.03-1.035c.56 0 .965-.23 1.215-.69v-.93c-.26-.47-.665-.705-1.215-.705-.34 0-.615.11-.825.33-.2.21-.3.49-.3.84s.1.63.3.84c.21.21.485.315.825.315zm4.478 3.87.27-1.59c.14.07.295.105.465.105.4 0 .665-.175.795-.525l.24-.69-2.445-7.38h1.92l1.455 5.07 1.47-5.07h1.92l-2.835 8.475c-.21.64-.505 1.08-.885 1.32-.38.25-.88.38-1.5.39-.35 0-.64-.035-.87-.105zm8.674-2.835h-1.8v-7.245h1.8v2.7h2.265v-2.7h1.815V119h-1.815v-2.97h-2.265V119zm8.55 0h-1.815v-5.67h-1.59v-1.575h5.01v1.575h-1.605V119zm5.553.18c-1.02 0-1.82-.365-2.4-1.095-.58-.74-.87-1.645-.87-2.715 0-1.07.29-1.97.87-2.7.58-.73 1.38-1.095 2.4-1.095 1.03 0 1.835.365 2.415 1.095.58.73.87 1.63.87 2.7 0 1.08-.29 1.985-.87 2.715-.58.73-1.385 1.095-2.415 1.095zm0-1.59c.47 0 .825-.21 1.065-.63.24-.42.36-.95.36-1.59 0-.64-.12-1.165-.36-1.575-.24-.42-.595-.63-1.065-.63-.46 0-.81.21-1.05.63-.23.42-.345.945-.345 1.575 0 .64.115 1.17.345 1.59.24.42.59.63 1.05.63zm8.312 1.41h-3.78v-7.245h3.675c.73 0 1.28.175 1.65.525.38.35.57.795.57 1.335 0 .42-.115.775-.345 1.065-.23.28-.53.47-.9.57.41.09.745.3 1.005.63.26.33.39.715.39 1.155 0 .58-.19 1.055-.57 1.425-.38.36-.945.54-1.695.54zm-.42-1.455c.56 0 .84-.25.84-.75 0-.22-.075-.4-.225-.54-.14-.15-.345-.225-.615-.225h-1.56v1.515h1.56zm-.06-2.97c.51 0 .765-.225.765-.675 0-.21-.065-.375-.195-.495-.13-.13-.32-.195-.57-.195h-1.5v1.365h1.5z" fill="#fff"/></svg>
